X:1
T:The Recruited Collier
M:2/4
L:1/8
K:E
 B,| B,E E/2E/2 E| DE FF| GG AG/2-F/2| F B2| A| GE EE| DE FF| BB BG|\
A/2-G/2 G2|G/2-A/2| BB B- G/2G/2| AA FA| GF ED| B, B,2| B,| EE D/2 E3/2|\
 FF B A/2A/2| G/2F/2 EG F| E E2||
